svgs/thin/clipboard-list-check.svg

<svg xmlns="http://www.w3.org/2000/svg" viewBox="0 0 384 512"><!--! Font Awesome Pro 6.0.0-alpha3 by @fontawesome - https://fontawesome.com License - https://fontawesome.com/license (Commercial License) --><path d="M96 160h192c17.67 0 32-14.33 32-32V113.6C320 86.21 297.8 64 270.4 64C262.1 27.48 230.7 0 192 0S121 27.48 113.6 64C86.21 64 64 86.21 64 113.6V128C64 145.7 78.33 160 96 160zM80 113.6C80 95.05 95.05 80 113.6 80h13.08l1.845-9.091c4.986-24.56 22.27-46.17 46.48-52.65c36.93-9.881 72.56 13.83 79.69 48.93L257.3 80h13.08C288.1 80 304 95.05 304 113.6V128c0 8.837-7.163 16-16 16H96C87.16 144 80 136.8 80 128V113.6zM192 96c8.836 0 16-7.164 16-16C208 71.16 200.8 64 192 64S176 71.16 176 80C176 88.84 183.2 96 192 96zM312 248h-112C195.6 248 192 251.6 192 256s3.594 8 8 8h112C316.4 264 320 260.4 320 256S316.4 248 312 248zM80 384c0 8.836 7.164 16 16 16s16-7.164 16-16c0-8.838-7.164-16-16-16S80 375.2 80 384zM355.2 100c-4.094-1.719-8.75 .0625-10.53 4.156c-1.75 4.031 .0938 8.75 4.156 10.53C360.5 119.8 368 131.3 368 144v320c0 17.66-14.34 32-32 32h-288c-17.66 0-32-14.34-32-32v-320c0-12.69 7.531-24.19 19.22-29.31c4.031-1.75 5.875-6.469 4.094-10.53C37.56 100.1 32.94 98.22 28.78 100.1C11.31 107.7 0 124.1 0 144v320C0 490.5 21.53 512 48 512h288c26.47 0 48-21.53 48-48v-320C384 124.9 372.7 107.6 355.2 100zM312 376h-144C163.6 376 160 379.6 160 384s3.594 8 8 8h144c4.406 0 8-3.578 8-8S316.4 376 312 376zM90.34 293.7C91.91 295.2 93.94 296 96 296s4.094-.7813 5.656-2.344l64-64c3.125-3.125 3.125-8.188 0-11.31s-8.188-3.125-11.31 0L96 276.7L69.66 250.3c-3.125-3.125-8.188-3.125-11.31 0s-3.125 8.188 0 11.31L90.34 293.7z"/></svg>

<svg xmlns="http://www.w3.org/2000/svg" viewBox="0 0 384 512"><!-- Font Awesome Pro 6.0.0-alpha2 by @fontawesome - https://fontawesome.com License - https://fontawesome.com/license (Commercial License) --><path d="M96 160H288C305.673 160 320 145.673 320 128V113.613C320 86.213 297.787 64 270.387 64H270.387C262.973 27.484 230.703 0 192 0S121.027 27.484 113.613 64H113.613C86.213 64 64 86.213 64 113.613V128C64 145.673 78.327 160 96 160ZM80 113.613C80 95.049 95.049 80 113.613 80H126.691L128.537 70.909C133.522 46.345 150.808 24.735 175.02 18.257C211.952 8.376 247.579 32.084 254.707 67.184L257.309 80H270.387C288.951 80 304 95.049 304 113.613V128C304 136.837 296.837 144 288 144H96C87.163 144 80 136.837 80 128V113.613ZM192 96C200.836 96 208 88.836 208 80C208 71.162 200.836 64 192 64S176 71.162 176 80C176 88.836 183.164 96 192 96ZM312 248H200C195.594 248 192 251.578 192 256S195.594 264 200 264H312C316.406 264 320 260.422 320 256S316.406 248 312 248ZM80 384C80 392.836 87.164 400 96 400S112 392.836 112 384C112 375.162 104.836 368 96 368S80 375.162 80 384ZM355.188 100C351.094 98.281 346.438 100.062 344.656 104.156C342.906 108.188 344.75 112.906 348.812 114.688C360.469 119.75 368 131.281 368 144V464C368 481.656 353.656 496 336 496H48C30.344 496 16 481.656 16 464V144C16 131.312 23.531 119.812 35.219 114.688C39.25 112.938 41.094 108.219 39.312 104.156C37.562 100.125 32.938 98.219 28.781 100.062C11.312 107.719 0 124.969 0 144V464C0 490.469 21.531 512 48 512H336C362.469 512 384 490.469 384 464V144C384 124.906 372.688 107.625 355.188 100ZM312 376H168C163.594 376 160 379.578 160 384S163.594 392 168 392H312C316.406 392 320 388.422 320 384S316.406 376 312 376ZM90.344 293.656C91.906 295.219 93.938 296 96 296S100.094 295.219 101.656 293.656L165.656 229.656C168.781 226.531 168.781 221.469 165.656 218.344S157.469 215.219 154.344 218.344L96 276.688L69.656 250.344C66.531 247.219 61.469 247.219 58.344 250.344S55.219 258.531 58.344 261.656L90.344 293.656Z"/></svg>
